X: 3
T: Ingonish
R: jig
M: 6/8
L: 1/8
K: Edor
BEE BEB|AFD DFA|BEE BEB|FDF Ad^c|BEE BEB|AFD DFA|AB^c dAF|EFE E3:|B2 e efg|fef dBA|B2 e efg|afe d2 A|B2 e efg|fef dBA|BdB AFD|[1EFE E2 A :|[2EFE E3|]


Tune 780	Setting 780

